X: 1
T: Sunny, Shiny Forest Revised
M: 4/4
L: 1/4
Q: 1/4=160
K: A major
V:1
%%MIDI gchord c2c2
%%MIDI program 1
%%MIDI chordprog 64
%%MIDI bassprog 45
| "A" ceeA | "D" df^cd | "Bm" eA^ce | "E7" ^G2e2 | % measure 1-4
%%MIDI program 1
%%MIDI chordprog 64
%%MIDI bassprog 45
| "A" aece | "F#m" f^fed | "D" dBA^G | "A" A2 z2 | % measure 5-8
%%MIDI program 2
%%MIDI chordprog 64
%%MIDI bassprog 45
| "D" d2 fd | "C#m" e^ceg | "Bm" bABc | "E7" e4 | % measure 9-12
%%MIDI program 2
%%MIDI chordprog 64
%%MIDI bassprog 45
| "A" c'ba^g | "D" afed | "A/C#" cBA^G | "A" A4 | % measure 13-16
```